build/category/BookOutline.svg

<svg xmlns="http://www.w3.org/2000/svg" fill="none" viewBox="0 0 24 24" focusable="false"><path d="M0 0H24V24H0z"/><path fill="#74767B" fill-rule="evenodd" d="M5 7C5 5.34314 6.34315 4 8 4L16 4C17.6569 4 19 5.34315 19 7L19 17C19 18.6568 17.6569 20 16 20L8 20C6.34315 20 5 18.6568 5 17L5 15.4494L5.0023 15.4494L5 15.4468L5 7ZM8 5.3C7.06111 5.3 6.3 6.06111 6.3 7L6.3 14.6111C6.74737 14.3191 7.2818 14.1494 7.85585 14.1494L16 14.1494C16.9389 14.1494 17.7 13.3883 17.7 12.4494L17.7 7C17.7 6.06112 16.9389 5.3 16 5.3L8 5.3ZM8.84131 6.99435C8.48232 6.99435 8.19131 7.28536 8.19131 7.64435C8.19131 8.00333 8.48232 8.29435 8.84131 8.29435L15.1586 8.29435C15.5176 8.29435 15.8086 8.00333 15.8086 7.64435C15.8086 7.28536 15.5176 6.99435 15.1586 6.99435L8.84131 6.99435ZM8.84131 9.58688C8.48232 9.58688 8.19131 9.87789 8.19131 10.2369C8.19131 10.5959 8.48232 10.8869 8.84131 10.8869L15.1586 10.8869C15.5176 10.8869 15.8086 10.5959 15.8086 10.2369C15.8086 9.87789 15.5176 9.58688 15.1586 9.58688L8.84131 9.58688ZM16 15.4494C16.6312 15.4494 17.2168 15.2545 17.7 14.9216L17.7 17C17.7 17.9388 16.9389 18.7 16 18.7L8 18.7C7.08487 18.7 6.33863 17.9769 6.30145 17.0709C6.30398 17.0476 6.30527 17.024 6.30527 17C6.30527 16.1436 6.99949 15.4494 7.85585 15.4494L16 15.4494Z"/></svg>

<svg xmlns="http://www.w3.org/2000/svg" fill="none" viewBox="0 0 24 24" focusable="false"><path fill="#74767B" fill-rule="evenodd" d="M5 7c0-1.66 1.34-3 3-3h8c1.65 0 3 1.34 3 3v10c0 1.65-1.35 3-3 3H8c-1.66 0-3-1.35-3-3V7m3-1.7c-.94 0-1.71.76-1.71 1.7v7.61c.45-.3.99-.47 1.56-.47H16c.93 0 1.7-.76 1.7-1.7V7c0-.94-.77-1.7-1.7-1.7zm.19 2.34c0-.36.29-.65.65-.65h6.31c.36 0 .65.29.65.65s-.29.65-.65.65H8.84c-.36 0-.65-.29-.65-.65m.65 1.94c-.36 0-.65.29-.65.65s.29.65.65.65h6.31c.36 0 .65-.29.65-.65s-.29-.65-.65-.65zM16 15.44c.63 0 1.21-.19 1.7-.52V17c0 .93-.77 1.7-1.7 1.7H8c-.92 0-1.67-.73-1.7-1.63V17c0-.86.69-1.56 1.55-1.56z"/></svg>
